X:1
T:God’s Holy Book
T:God’s Holy Book
T:Edwin Othello Excell
T:Martha Mills Newton, 1897
T:Public Domain Courtesy of the Cyber Hymnal™
C:Edwin Othello Excell
Z:Public Domain
Z:Courtesy of the Cyber Hymnal™
%%score ( 1 2 ) 3
L:1/8
Q:1/4=95
M:3/4
K:Ab
V:1 treble 
V:2 treble 
V:3 bass 
V:1
 [CE]2 | [CA]>[B,G] [CA]3 [DB] | [Ec]>[=D=B] [Ec]3 [E_d] | [Ee]>[Ef] [Ee]3 [Ac] | %4
w: 1.~What|light is this whose|con- stant ray Re-|veals to tra- velers|
w: 2.~What|faith- ful chart on|life’s rough sea, What|com- pass true wher-|
w: 3.~What|sword en- a- bles|us to fight A-|gainst sin’s pow’rs and|
 [Ac]>[GB] !fermata![GB]2 [DE]2 | [CA]>[B,G] [CA]3 [DB] | [Ec]>[=D=B] [Ec]3 [E_d] | %7
w: lost the way To|man- sions of e-|ter- nal day? God’s|
w: e’er we be, What|an- chor for e-|ter- ni- ty? God’s|
w: Sa- tan’s might? Gives|vic- to- ry for|God and right? God’s|
 [Ee]>[Ef] [Ee]3 [Ec] | [DB]2 !fermata![CA]2 ||"^Refrain" A2 | (z [EB]3) [Ec] x | %11
w: ho- ly book, the|Bi- ble.|I|* love|
w: ho- ly book, the|Bi- ble.|||
w: ho- ly book, the|Bi- ble.|||
 [EB]2 !fermata![EA]2 c2 | (z [Ae]3) [Ac] x | [Ac]2 !fermata![GB]2 [DE]2 | [CA]>[B,G] [CA]3 [DB] | %15
w: * the Bi-|* ble,|* I love|the Bi- ble, A|
w: ||||
w: ||||
 [Ec]>[=D=B] [Ec]3 [E_d] | [Ee]>[Ef] [Ee]3 [Ec] | [DB]2 !fermata![CA]2 |] %18
w: light to shine up-|on my path, I|love, I|
w: |||
w: |||
V:2
 x2 | x6 | x6 | x6 | x6 | x6 | x6 | x6 | x4 || x2 | B2 E x3 | x6 | e2- A x3 | x6 | x6 | x6 | x6 | %17
 x4 |] %18
V:3
 [A,,A,]2 | [A,,A,]>[A,,A,] [A,,A,]3 [A,,A,] | [A,,A,]>[A,,A,] [A,,A,]3 [A,B,] | %3
w: ~|~ ~ ~ ~|~ ~ ~ ~|
 [A,C]>[A,D] [A,C]3 [A,E] | [E,E]>[E,E] !fermata![E,E]2 [E,G,]2 | %5
w: ~ ~ ~ ~|~ ~ ~ ~|
 [A,,A,]>[A,,A,] [A,,A,]3 [A,,A,] | [A,,A,]>[A,,A,] [A,,A,]3 [A,B,] | [A,C]>[A,D] [A,C]3 [A,,A,] | %8
w: ~ ~ ~ ~|~ ~ ~ ~|~ ~ ~ ~|
 [E,G,]2 !fermata![A,,A,]2 || z2 | z [E,D] [E,D]3 [E,D] | [A,C]2 !fermata![A,C]2 z2 | %12
w: ~ ~||I love the|Bi- ble,|
 z [A,C] [A,C]3 [A,E] | [E,E]2 !fermata![E,E]2 [E,G,]2 | [A,,A,]>[A,,A,] [A,,A,]3 [A,,A,] | %15
w: I love the|Bi- ble, *||
 [A,,A,]>[A,,A,] [A,,A,]3 [A,B,] | [A,C]>[A,D] [A,C]3 [A,,A,] | [E,G,]2 !fermata![A,,A,]2 |] %18
w: |||

